icons/svg/16x16/renew vertical/outline.svg

<svg width="16" height="16" fill="none" xmlns="http://www.w3.org/2000/svg">
  <path fill-rule="evenodd" clip-rule="evenodd" d="M13 10V7c0-2.757-2.243-5-5-5a1 1 0 100 2c1.654 0 3 1.346 3 3v3H9l3 4 3-4h-2zm-4 3a1 1 0 01-1 1c-2.757 0-5-2.243-5-5V6H1l3-4 3 4H5v3c0 1.654 1.346 3 3 3a1 1 0 011 1z" fill="#000"/>
</svg>

<svg xmlns="http://www.w3.org/2000/svg" width="16" height="16" viewBox="0 0 16 16">
  <path fill-rule="evenodd" d="M13,10 L13,7 C13,4.243 10.757,2 8,2 C7.448,2 7,2.447 7,3 C7,3.553 7.448,4 8,4 C9.654,4 11,5.346 11,7 L11,10 L9,10 L12,14 L15,10 L13,10 Z M9,13 C9,13.553 8.552,14 8,14 C5.243,14 3,11.757 3,9 L3,6 L1,6 L4,2 L7,6 L5,6 L5,9 C5,10.654 6.346,12 8,12 C8.552,12 9,12.447 9,13 L9,13 Z"/>
</svg>
